!!!COM: Johannes Brahms
!!!CNT: Deutscher
!!!TXO: Deutsche
!!!OTL: Wie rafft ich mich auf
!!!OPS: Op.32
!!!ONM: No. 1
!!!LYR: Eichendorff
!!!ONB: Original key: f minor
!!!ENC: Ayako Kataoka        
!!!EED: Leigh VanHandel
!!!YOR: C.F. Peters, Brahms Lieder fu2r eine Singstimme mit Klavierbegleitung, Band III, ausgabe fu2r tiefere Stimme
!!!ODT: 1864/
!!NB: Vocal melody and text only encoded.
**kern	**silbe
*clefG	*
*k[b-e-a-d-g-c-]	*
*M4/4	*
*MM[andante]	*
=1-	=1-
2r	.
4r	.
8r	.
{8e-	{Wie
=2	=2
4e-	rafft
8.c-	ich
16d-	mich
4e-	auf
8.f	in
16g-	der
=3	=3
4e-}	Nacht,}
4r	.
4r	.
{8.a-	{in
16b-	der
=4	=4
4g-}	Nacht,}
4r	.
4r	.
8.r	.
{16b-	{und
=5	=5
4cc-	fu2hl-
8g-	-te
16r	.
16dd--	mich
4cc-	fu2r-
8g-}	-der,}
16r	.
{16ccn	{mich
=6	=6
4dd-	fu2r-
8a-	-der
16r	.
16ee--	ge-
4dd-	-zo-
8a-}	-gen,}
8r	.
=7	=7
{4ee-	{fu2hl-
8.b-	-te
16dd-	mich
(8.cc-	fu2r-
16b-)	|
8.a-	-der
16an	ge-
=8	=8
4b-	-zo-
8f}	-gen,}
8r	.
4r	.
8r	.
{8en	{die
=9	=9
(8f	Gas-
8ccn)	|
8dd-	-sen
8ee-	ver-
4dd-	-liess
8cc-	ich
8b-	vom
=10	=10
(8an	Wa2
8b-)	-ch-
8a-	-ter
8g-	be-
4f}	-wacht,}
8r	.
{8f	{durch-
=11	=11
4b-	-wan-
8b-	-del-
8b-	-te
4f	sacht
8f	in
8f	der
=12	=12
4g-}	Nacht,}
{8g-	{in
8g-	der
4dn}	Nacht,}
8r	.
{8d	{das
=13	=13
4e-	Tor
8g-	mit
8b-	dem
4cc-	go-
8a-	-ti-
8f	-schen
=14	=14
1b-	Bo-
=15	=15
4e-}	-gen.}
4r	.
2r	.
=18	=18
2r	.
4r	.
8r	.
{8b-	{Der
=19	=19
4.cc-	Mu2hl-
8cc-	bach
4b-	rausch-
8g-	-te
8e-	durch
=20	=20
4b-	fel-
8b-	-si-
8b-	-gen
4a-}	Schacht,}
8r	.
{8a-	{ich
=21	=21
(8a-	lehn-
8g-)	|
8f	-te
8e-	mich
(8a-	u2-
8g-)	|
8f	-ber
8e-	die
=22	=22
2f	Bru2-
4f}	-cke,}
8r	.
{8b-	{tief
=23	=23
4cc-	un-
8cc-	-ter
8cc-	mir
4b-	nahm
8b-	ich
8b-	der
=24	=24
4dd-	Wo-
8dd-	-gen
8dd-	in
4ccn}	acht,}
8r	.
{8cc	{die
=25	=25
(8ee-	wa-
8dd-)	-ll-
8ccn	-ten
8b-	so
(8ee-	sa-
8dd-)	-cht
8cc	in
8b-	der
=26	=26
4ccn}	Nacht,}
{8dd-	{in
8cc	der
4cc}	Nacht,}
8r	.
{8f	{doch
=27	=27
(8en	wall-
8an)	|
8bn	-te
8ccn	nicht
4ee-	ei-
8dd-	-ne
8cc	zu-
=28	=28
4ccn	ru2-
4b-}	-cke,}
4r	.
8r	.
{8dd-	{doch
=29	=29
(8dd-	wa-
8cc-)	-ll-
8b-	-te
8a-	nicht
(8a-	ei-
8g-)	|
8e-	-ne
8cn	zu-
=30	=30
1f	-ru2-
=31	=31
4B-}	-cke.}
4r	.
2r	.
=32	=32
2r	.
4r	.
8r	.
{8b-	{Es
=33	=33
4cc-	dreh-
8cc-	-te
8cc-	sich
4b-	o-
8g-	-ben
8e-	un-
=34	=34
4b-	-za2h-
8b-	-lig
8b-	ent-
4a-}	-facht}
8r	.
{8a-	{me-
=35	-lo-
(8a-	|
8g-)	di-
8f	-scher
8e-	Wa-
(8a-	-n-
8g-)	-del
8f	der
8e-	Ster-
=36	=36
2f}	-ne,}
4f	.
8r	.
{8b-	{mit
=37	=37
4cc-	ih-
8cc-	-nen
8cc-	der
4b-	Mond
8b-	in
8b-	be-
=38	=38
4dd-	-ru-
8dd-	-hig-
8dd-	-ter
4ccn}	Pracht,}
8r	.
{8cc	{sie
=39	=39
(8ee-	fun-
8dd-)	|
8ccn	-kel-
8b-	-ten
(8ee-	sa-
8dd-)	-cht
8cc	in
8b-	der
=40	=40
4ccn}	Nacht,}
{8dd-	{in
8cc	der
4cc}	Nacht,}
8r	.
{8f	{durch
=41	=41
(8en	ta2u-
8an)	|
8bn	-schend
8ccn	ent-
4ee-	-le-
8dd-	-ge-
8cc	-ne
=42	=42
4ccn	Fer-
4b-}	-ne}
4r	.
8r	.
{8dd-	{durch
=43	=43
(8dd-	ta2u-
8cc-)	|
8b-	schend
8a-	ent-
(8a-	-le
8g-)	|
8e-	-ge-
8cn	-ne
=44	=44
1f	Fer-
=45	=46
4B-}	-ne.}
4r	.
2r	.
=46	=46
2r	.
4r	.
8r	.
{8b-	{Ich
=47	=47
4b-	blick-
8.g-	-te
16a-	hin-
4b-	-auf
8.ccn	in
16dd-	der
=48	=48
4b-}	Nacht,}
4r	.
4r	.
{8.ccn	{in
16dd-	der
=49	=49
4b-}	Nacht,}
4r	.
4r	.
8r	.
{8b-	{und
=50	=50
4cc-	blick-
8g-	-te
16r	.
16b-	hin-
4cc-	-un-
8g-}	-ter,}
16r	.
{16ccn	{hin-
=51	=51
4dd-	-un-
8a-	-ter
16r	.
16ee--	aufs
4dd-	neu-
8a-}	-e,}
16r	.
{16ddn	{und
=52	=52
4ee-	blick-
8.b-	-te
16dd-	hin-
(8.c-	-un-
16b-)	|
8.a-	-ter
16an	aufs
=52	=52
4b-	neu-
8f}	-e:}
8r	.
4r	.
8r	.
{8en	{O
=53	=53
(8f	we-
8ccn)	|
8dd-	-he,
8ee-	wie
4dd-	hast
8cc	du
8b-	die
=54	=54
(8f#	Ta-
8cc#)	|
8ddn	-ge
8een	ver
4dd}	bracht,}
8r	.
{8bn	{o
=55	=55
4ccn	we-
8an	-he,
8f#	wie
4bn	hast
8gn	du
8en	die
=56	=56
4an	Ta-
8bn	-ge
8f#	ver
4gn}	bracht,}
8r	.
{8en	{nun
=57	=57
4cc-	stil-
8cc-	-le
8cc-	du
4g-	sacht
8g-	in
8g-	der
=58	=58
4gn}	Nacht,}
{8g	{in
8g	der
4e-}	Nacht,}
8r	.
{8e-	{im
=59	=59
4f-	po-
8a-	-chen-
8a-	-den
4cc-	Her-
8a-	-zen
8fn	die
=60	=60
1b-	Reu-
=61	=61
4e-}	-e!}
4r	.
2r	.
*-	*-
